src/Icon/svgs/star-none.svg

<svg xmlns="http://www.w3.org/2000/svg" width="24" height="24" viewBox="0 0 24 24">
  <path fill="#DDE0E2" fill-rule="evenodd" d="M8.46323534,17.2969394 L11.9999047,15.4374703 L12.9305777,15.9266758 L15.5371664,17.2968211 L14.8621591,13.3587341 L15.6149116,12.6249026 L17.7231978,10.5696098 L13.7689664,9.99502847 L13.3035996,9.05225203 L12.0003134,6.41195309 L10.230843,9.99502846 L9.19066607,10.1462057 L6.27777521,10.5695594 L9.13904957,13.3589137 L8.96119637,14.3952796 L8.46323534,17.2969394 Z M7.67301223,19.972 C6.64301223,20.514 5.96701223,20.023 6.16301223,18.876 L6.99001223,14.057 L3.48901223,10.644 C2.65501223,9.831 2.91401223,9.037 4.06601223,8.87 L8.90301223,8.167 L11.0680122,3.783 C11.5830122,2.739 12.4180122,2.739 12.9330122,3.783 L15.0970122,8.167 L19.9350122,8.87 C21.0870122,9.037 21.3450122,9.831 20.5120122,10.644 L17.0110122,14.057 L17.8370122,18.876 C18.0330122,20.023 17.3590122,20.514 16.3280122,19.972 L12.0000122,17.697 L7.67301223,19.972 Z"/>
</svg>

<svg xmlns="http://www.w3.org/2000/svg" width="24" height="24"><path fill="#1B1C1D" fill-rule="evenodd" d="M8.463 17.297L12 15.437l.931.489 2.607 1.37-.675-3.938.753-.734 2.108-2.055-3.954-.575-.465-.943L12 6.412l-1.769 3.583-1.04.151-2.913.423 2.861 2.789-.178 1.036-.498 2.902zm-.79 2.675c-1.03.542-1.706.051-1.51-1.096l.827-4.819-3.501-3.413c-.834-.813-.575-1.607.577-1.774l4.837-.703 2.165-4.384c.515-1.044 1.35-1.044 1.865 0l2.164 4.384 4.838.703c1.152.167 1.41.961.577 1.774l-3.501 3.413.826 4.819c.196 1.147-.478 1.638-1.509 1.096L12 17.697l-4.327 2.275z"/></svg>
